X: 25305
T: Man With The Money, The
R: reel
M: 4/4
K: Eminor
E2BE GEGe|E2BG FDDF|E2BE GABG|FdAG FDDF|
E2BE GEGe|E2BG FDDF|EFGE FGAF|GdAG FDDF|
EeeB GABG|FDdD FAFD|EedB cABG|FDFA dAFD|
EeeB GBAF|EedA FDDF|Eege f^deB|dcBA FDDF|

